X:1
T:Lady Mary Cochrane's Reel
T:Lady Mary Cochrane's Reel
T:Braemar Coll.
C:Braemar Coll.
L:1/8
M:2/4
K:C
V:1 treble 
V:1
 G |"C" [Gc]>d [Ge]c |"F" A2 Aa |"C" [cg]e"D7" [^Fd]c |"G7" [=Fd]/c/d/e/ dG |"C" [Gc]>d ec | %6
"F" A2 Aa |"C" [cg]e"G7" [Fd]e |"C" [Ec]3 || g |"C" [cc']>g"F" ag |"C" [cc']>g"F" ac' | %12
"C" ge"D7" dc |"G7" d/c/d/e/ dg |"C" [cc']>g"F" ag |"C" [cc']>g"F" ac' |"G" [Gg]e"G7" [Fd]>e | %17
"C" c2 z |] %18

